dist/assets/img/icons/quote.svg

<svg width="55" height="44" viewBox="0 0 55 44" fill="none" xmlns="http://www.w3.org/2000/svg">
<path opacity="0.2" d="M52 -6.86646e-05C53.6569 -6.86646e-05 55 1.34307 55 2.99993V14.7359C55 20.2556 54.0379 25.3195 52.0629 29.9783C50.4038 33.9515 47.7281 38.0001 44.036 42.0916C43.0087 43.2299 41.2754 43.3355 40.0718 42.3856L36.4311 39.5125C35.0212 38.3999 34.9066 36.3123 36.0958 34.9664C37.687 33.1656 38.9807 31.4356 39.9602 29.8263C40.7222 28.5473 41.3379 27.2536 41.8074 25.9454C42.4322 24.2043 41.015 22.5343 39.1652 22.5343H35.3137C33.6568 22.5343 32.3137 21.1912 32.3137 19.5343V2.99993C32.3137 1.34308 33.6569 -6.86646e-05 35.3137 -6.86646e-05H52ZM20.4012 -6.86646e-05C22.0581 -6.86646e-05 23.4012 1.34307 23.4012 2.99993V14.7359C23.4012 20.2556 22.4391 25.3195 20.4642 29.9783C18.805 33.9515 16.1293 38.0001 12.4372 42.0916C11.4099 43.2299 9.67668 43.3355 8.47299 42.3856L4.8323 39.5125C3.42242 38.3999 3.30779 36.3123 4.49701 34.9664C6.0882 33.1656 7.3819 31.4356 8.36143 29.8263C9.12341 28.5473 9.73914 27.2536 10.2086 25.9454C10.8334 24.2043 9.41622 22.5343 7.56643 22.5343H3.71494C2.05808 22.5343 0.714935 21.1912 0.714935 19.5343V2.99993C0.714935 1.34308 2.05808 -6.86646e-05 3.71494 -6.86646e-05H20.4012Z" fill="white"/>
</svg>

<svg width="55" height="44" fill="none" xmlns="http://www.w3.org/2000/svg"><path opacity=".2" d="M52 0a3 3 0 013 3v11.736c0 5.52-.962 10.584-2.937 15.242-1.66 3.974-4.335 8.022-8.027 12.114-1.027 1.138-2.76 1.244-3.964.294l-3.64-2.873c-1.41-1.113-1.525-3.2-.336-4.547 1.591-1.8 2.885-3.53 3.864-5.14a22.303 22.303 0 001.847-3.88c.625-1.742-.792-3.412-2.642-3.412h-3.851a3 3 0 01-3-3V3a3 3 0 013-3H52zM20.401 0a3 3 0 013 3v11.736c0 5.52-.962 10.584-2.937 15.242-1.659 3.974-4.335 8.022-8.027 12.114-1.027 1.138-2.76 1.244-3.964.294l-3.64-2.873c-1.41-1.113-1.525-3.2-.336-4.547 1.591-1.8 2.885-3.53 3.864-5.14a22.302 22.302 0 001.848-3.88c.624-1.742-.793-3.412-2.643-3.412H3.715a3 3 0 01-3-3V3a3 3 0 013-3H20.4z" fill="#fff"/></svg>
